src/assets/images/placeholder.svg

<?xml version="1.0" encoding="UTF-8" standalone="no"?>
<svg width="52px" height="52px" viewBox="0 0 52 52" version="1.1" xmlns="http://www.w3.org/2000/svg" xmlns:xlink="http://www.w3.org/1999/xlink">
    <!-- Generator: Sketch 3.7.1 (28215) - http://www.bohemiancoding.com/sketch -->
    <title>tbd</title>
    <desc>Created with Sketch.</desc>
    <defs></defs>
    <g id="Page-1" stroke="none" stroke-width="1" fill="none" fill-rule="evenodd">
        <g id="map-icons" transform="translate(-42.000000, -241.000000)">
            <g id="tbd" transform="translate(48.000000, 247.000000)">
                <circle id="Oval-5" stroke-opacity="0.7" stroke="#C9C9C9" stroke-width="12" fill="#C9C9C9" cx="20" cy="20" r="20"></circle>
                <path d="M20.8125,8 C17.296875,8 15.0125,9.5078125 13.9765625,11.3203125 C12.940625,13.1328125 13,15.03125 13,15.8125 L16.125,15.8125 C16.125,15.03125 16.184375,13.8046875 16.7109375,12.8828125 C17.2375,11.9609375 18.078125,11.125 20.8125,11.125 C22.8953125,11.125 24.053125,11.64375 24.6703125,12.2 C25.2875,12.75625 25.5,13.4265625 25.5,14.2515625 C25.5,16.85625 24.475,17.571875 22.9125,18.9390625 C21.35,20.30625 19.25,22.325 19.25,25.9703125 L19.25,26.7515625 L22.375,26.7515625 L22.375,25.9703125 C22.375,23.365625 23.4,22.65 24.9625,21.2828125 C26.525,19.915625 28.625,17.896875 28.625,14.2515625 C28.625,12.7328125 28.05625,11.059375 26.7203125,9.85625 C25.384375,8.6546875 23.415625,8 20.8125,8 L20.8125,8 Z M19.25,29.875 L19.25,33 L22.375,33 L22.375,29.875 L19.25,29.875 L19.25,29.875 Z" id="Shape" fill="#FFFFFF"></path>
            </g>
        </g>
    </g>
</svg>

<svg width="52" height="52" viewBox="0 0 52 52" xmlns="http://www.w3.org/2000/svg"><title>tbd</title><g transform="translate(6 6)" fill="none" fill-rule="evenodd"><circle stroke-opacity=".7" stroke="#C9C9C9" stroke-width="12" fill="#C9C9C9" cx="20" cy="20" r="20"/><path d="M20.813 8c-3.516 0-5.8 1.508-6.836 3.32C12.94 13.133 13 15.031 13 15.812h3.125c0-.78.06-2.007.586-2.93.527-.921 1.367-1.757 4.102-1.757 2.082 0 3.24.519 3.857 1.075.617.556.83 1.227.83 2.052 0 2.604-1.025 3.32-2.587 4.687-1.563 1.367-3.663 3.386-3.663 7.031v.782h3.125v-.782c0-2.604 1.025-3.32 2.587-4.687 1.563-1.367 3.663-3.386 3.663-7.031 0-1.52-.569-3.193-1.905-4.396C25.384 8.655 23.416 8 20.813 8zM19.25 29.875V33h3.125v-3.125H19.25z" fill="#FFF"/></g></svg>
